X:1
T:When I am laid in Earth
T:When I am laid in Earth
T:When I am laid in Earth
T:"Dido's Lament" - Dido and Anaeas, Act 3
T:Henry Purcell
T:Nahum Tate
C:Henry Purcell
Z:Nahum Tate
%%score 1 [ ( 2 3 ) 4 ] 5
L:1/8
Q:1/4=40
M:4/4
K:Bb
V:1 treble nm="Soprano" snm="S."
V:2 treble nm="Violin" snm="Vln."
V:3 treble 
V:4 alto nm="Viola" snm="Vla."
V:5 bass nm="Harpsichord" snm="Hch."
V:1
!mp! z c c=B c3 c | (c B3- B/A/B/G/ _A>)B | =A3 A z2 _AA | (_A G2) G z2 GF | G4 z2 GG | %5
w: Thy hand, Be- lin- da;|dark _ _ _ _ _ _ ness|shades me, On thy|bo _ som let me|rest; More I|
 (GF) z F (F2 P=E>)F | =EE z2 (D _E2) E | (E D2) ^F (FG) (G<C) ||[M:3/2][Q:1/2=60] D8 z4 | z12 | %10
w: would, _ but Death _ in-|vades me; Death * is|now * a wel _ come _|guest.||
 z12 | z12 | z12 |"^A1" G4 A4 B4 | (B4 A4) =B4 | (c3 B A3 G ^F3) G | ^F8 d3 e | (d3 c PB7) A | %18
w: |||When I am|laid, _ am|laid _ _ _ _ in|earth, may my|wrongs _ _ cre-|
 B8 e4 | (e2 A2) A4 d4 | (dG) G2 (A4 PG3) ^F | A8 z4 | z12 |"^A2" G4 A4 B4 | (B4 A4) =B4 | %25
w: ate No|trou- * ble, no|trou- * ble in _ thy|breast,||When I am|laid, _ am|
 (c3 B A3 G ^F3) G | ^F8 d3 e | (d3 c PB7) A | B8 e4 | (e2 A2) A4 d4 | (dG) G2 (A4 PG3) ^F | %31
w: laid _ _ _ _ in|earth, may my|wrongs _ _ cre-|ate No|trou- * ble, no|trou- * ble in _ thy|
 A8 z4 | z4 z4 z2 z d | d3 d d4 z4 | z4 z4 z2 z d | d3 d d4 z4 | z4 z4 d4 | (c4 B4 c2 A2 | %38
w: breast,|Re-|mem- ber me!|Re-|mem- ber me!|But|ah! _ _ _|
 B3) c Pc7 d | d8 z2 z d | g3 g g7 c | (de f4 e2 d4) | (c2 B2) B4 (A2 G2) | G8 z2 z d | %44
w: _ for- get my|fate; Re-|mem- ber me! But|ah! _ _ _ _|for _ get my _|fate. Re-|
 d3 d d4 z4 | z4 z4 z2 z d | d3 d d4 z2 z c | (c4 B4 c2 A2 | B3) c Pc7 d | d8 z2 z d | g3 g g7 c | %51
w: mem- ber me!|Re-|mem- ber me! But|ah! _ _ _|_ for- get my|fate; Re-|mem- ber me! But|
 (de f4 e2 d4) | (c2 B2) B4 (A2 G2) | G8 z4 | z12 | z12 | z12 | z12 | z12 | z12 | z12 | z12 | z12 | %63
w: ah! _ _ _ _|for _ get my _|fate.||||||||||
 z12 |] %64
w: |
V:2
 z8 | z8 | z8 | z8 | z8 | z8 | z8 | z8 ||[M:3/2] z12 | z12 | z12 | z12 | z12 |!pp!!pp! B,8 B,4 | %14
 C8 D4 | D4 C8 | C8 B,4 | A,4 A,8 | G,8 B,4 | C4 D8 | D4 C8 | C8 D4 | E4 D8 | D4 C4 B,4 | C8 D4 | %25
 D4 C8 | C8 B,4 | A,4 A,8 | G,8 B,4 | C4 D8 | D4 C8 | C8 D4 | E4 D8 | D8 D4 | (D4 E4) D4 | G8 G4 | %36
 ^F8 G4 | E4 D8 | D4 E8 | D8 A4 | B7 A G4 | A8 G4 | E4 D8 | D8 D4 | D8 D4 | D4 =E2 ^F2 G4 | %46
 ^F8 G4 | E4 D8 | D4 E8 | D8 A4 | B7 A G4 | A8 G4 | E4 D8 | D12 | z4 z4 d4 | (d4 ^c4) =c4 | %56
 (c4 =B4) _B4 | (B4 A4) d4 | d7 d c3 B | A8 A4 | B7 A G4 | A8 G4 | G4 ^F7 G | !fermata!G12 |] %64
V:3
 x8 | x8 | x8 | x8 | x8 | x8 | x8 | x8 ||[M:3/2] x12 | x12 | x12 | x12 | x12 | D8 D4 | D8 D4 | %15
 G8 C4 | D8 D4 | E4 D8 | D8 G4 | A8 B2 A2 | G4 ^F4 G4 | ^F8 G4 | G4 P^F8 | G4 D8 | D8 D4 | G8 C4 | %26
 D8 D4 | E4 D8 | D8 G4 | A8 B2 A2 | G4 ^F4 G4 | ^F8 G4 | G4 P^F8 | G8 B4 | (B4 A4) A4 | %35
 (A4 G4) c4 | (c4 B4) B4 | (A4 G4) A2 ^F2 | G4 A8 | A8 d4 | (d4 c8) | (c4 B8) | (A2 G2) G4 ^F4 | %43
 G8 B4 | (B4 A4) A4 | (A4 G4) c4 | (c4 B4) B4 | (A4 G4) A2 ^F2 | G4 A8 | A8 d4 | (d4 c8) | %51
 (c4 B8) | (A2 G2) G4 ^F4 | G12 | x12 | x12 | z4 z4 g4 | (g4 ^f4) =f4 | (f4 =e4) _e4 | (e4 d4) d4 | %60
 (d4 ^c4) =c4 | (c4 =B4) _B4 | A4 A7 G | !fermata!G12 |] %64
V:4
 z8 | z8 | z8 | z8 | z8 | z8 | z8 | z8 ||[M:3/2] z12 | z12 | z12 | z12 | z12 |!pp! G,8 G,4 | %14
 A,8 A,4 | G,8 G,4 | A,8 G,4 | G,8 ^F,4 | G,4 G4 E4 | A,8 A,4 | B,4 C8 | A,8 B,4 | A,4 A,8 | %23
 B,4 A,4 G,4 | A,8 A,4 | G,8 G,4 | A,8 G,4 | G,8 ^F,4 | G,4 G4 E4 | E4 D4 A,4 | B,4 C8 | A,8 z4 | %32
 A,4 A,8 | B,8 B,4 | C8 A,4 | B,8 G,4 | A,8 G,4 | A,4 B,4 A,4 | G,4 ^F,4 G,4 | A,8 A,4 | %40
 G,4 C4 E4 | A,4 z8 | G,4 D4 C4 | B,8 B,4 | C8 A,4 | B,4 C2 B,2 A,2 G,2 | A,8 G,4 | A,4 B,4 A,4 | %48
 G,4 ^F,4 G,4 | A,8 A,4 | G,4 C4 E4 | A,4 D8 | G,4 D4 C4 | B,8 B4 | (B4 A4) A4 | (A4 G7) A | %56
 ^F8 D4 | (D4 C4) A,4 | B,8 C4 | D8 D4 | G,8 G4 | ^F8 D4 | E4 D7 D | !fermata!D12 |] %64
V:5
!mp! C,8- | C,8 | F,,8 | G,,4 _A,,4 | G,,4 G,,4 | G,,4 G,,4 | C,8 | D,4 E,4 || %8
[M:3/2] D,8"^Tasto solo" G,4 | ^F,8 =F,4 | =E,8 _E,4 | D,8 B,,4 | C,4 D,8 | %13
 G,,8"^Basso continuo" G,4 | ^F,8 =F,4 | =E,8 _E,4 | D,8 B,,4 | C,4 D,4 D,,4 | G,,8 G,4 | %19
 ^F,8 =F,4 | =E,8 _E,4 | D,8 B,,4 | C,4 D,4 D,,4 | G,,8 G,4 | ^F,8 =F,4 | =E,8 _E,4 | D,8 B,,4 | %27
 C,4 D,4 D,,4 | G,,8 G,4 | ^F,8 =F,4 | =E,8 _E,4 | D,8 B,,4 | C,4 D,4 D,,4 | G,,8 G,4 | ^F,8 =F,4 | %35
 =E,8 _E,4 | D,8 B,,4 | C,4 D,4 D,,4 | G,,8 G,4 | ^F,8 =F,4 | =E,8 _E,4 | D,8 B,,4 | C,4 D,4 D,,4 | %43
 G,,8 G,4 | ^F,8 =F,4 | =E,8 _E,4 | D,8 B,,4 | C,4 D,4 D,,4 | G,,8 G,4 | ^F,8 =F,4 | =E,8 _E,4 | %51
 D,8 B,,4 | C,4 D,4 D,,4 | G,,8 G,4 | ^F,8 =F,4 | =E,8 _E,4 | D,8 B,,4 | C,4 D,4 D,,4 | G,,8 G,4 | %59
 ^F,8 =F,4 | =E,8 _E,4 | D,8 B,,4 | C,4 D,4 D,,4 | !fermata!G,,12 |] %64

